X:1
T:St. Veronica, 66.66.66
T:Francis Henry Champneys, 1889
T:St. Veronica, 66.66.66
T:Public Domain
C:Francis Henry Champneys, 1889
Z:Public Domain
%%score ( 1 2 ) ( 3 4 )
L:1/8
M:4/4
K:A
V:1 treble 
V:2 treble 
V:3 bass 
V:4 bass 
V:1
 [CE]2 | [Ec]2 ([DB][Ec]) [Fd]2 [DB]2 | [B,G]6 [B,E]2 | [EA]2 [Ec]2 [EB]2 [EA]2 | [EG]6 E2 | %5
 [Gc]2 ([FB][Ec]) [Dd]2 [FB]2 | [EG]2 E2 [EA]2 [Ec]2 | [EG]4 [^DF]4 | E6 [A,C]2 | %9
 [A,D]2 [A,E]2 [A,F]2 [EG]2 | [EA]2 [EB]2 [Ec]2 [A^d]2 | [Ae]4 [DG]4 | [CA]6 |] %13
V:2
 x2 | x8 | x8 | x8 | x6 E2 | x8 | x2 E2 x4 | x8 | E6 x2 | x8 | x8 | x8 | x6 |] %13
V:3
 [A,,A,]2 | A,2 ([D,F,][C,E,]) [B,,D,]2 [D,F,]2 | E,6 [D,G,]2 | [C,A,]2 [A,,A,]2 [G,,D]2 [A,,C]2 | %4
 [E,B,]6 [E,G,]2 | [C,E]2 (DC) [B,,B,]2 [D,B,]2 | [E,B,]2 [D,G,]2 [C,A,]2 [A,,A,]2 | %7
 [B,,E,]4 (B,2 A,2) | [E,G,]6 [A,,A,]2 | [B,,A,]2 [C,G,]2 [D,F,]2 [E,E]2 | %10
 [F,E]2 [G,D]2 [A,C]2 [F,B,]2 | [E,C]4 [E,B,]4 | [A,,A,]6 |] %13
V:4
 x2 | A,2 x6 | E,6 x2 | x8 | x8 | x2 F,2 x4 | x8 | x4 B,,4 | x8 | x8 | x8 | x8 | x6 |] %13

